!!!OTL: 771. Zum Abschied.
!!!ODT: 1880
!!!ARE: Europa, Mitteleuropa, Deutschland, Hessen, Unter - Taunus, Lahnkreis
!!!SCT: E0771A
!!!TXL: @@DE
!!!YEM: Copyright 1995, estate of Helmut Schaffrath.
**kern	**text
*ICvox	*
*M4/4	*
*met(c)	*
*k[b-]	*
*F:	*
=1	=1
!LO:TX:a:t=Untertaunus u. Lahnkreis 1880.	!
{4f	Schätʒ-
4c	-chen
4a	reich
4f	mir
=2	=2
4cc	dei-
8ccL	-ne
8b-J	.
(4a	Hand
4f)}	.
=3	=3
{4.dd	ʒum
8cc	Be-
4b-	-ſchluß
4a	und
=4	=4
4g	Un-
4cc	-ter-
2cc}	-pfand!
=5	=5
{4g	Ʒum
4b-/	Be-
(4b-/	-ſchluß
4a)	.
=6	=6
4.cc	ei-
8g	-nen
(4b-/	Kuß,
4a)}	.
=7	=7
{4f	weil
4dd	ich
8ccL	von
8ddJ	.
8ccL	dir
8b-J	.
=8	=8
4cc	ſchei-
8ccL	-den
8b-J	.
2a;}	muß.
=9	=9
{4g	Ʒum
4b-/	Be-
(4b-/	-ſchluß
4a)	.
=10	=10
4.cc	ei-
8g	-nen
(4b-/	Kuß,
4a)}	.
=11	=11
{4f	weil
4dd	ich
8ccL	von
8ddJ	.
8ccL	dir
8b-J	.
=12	=12
4cc	ſchei-
8ccL	-den
8b-J	.
2a;}	muß.
==	==
!!!AGN: Abschieds - Lied, Liebe
!!!ONB: ESAC (Essen Associative Code) Database: ERK2
!!!AMT: simple quadruple
!!!AIN: vox
!!!EED: Helmut Schaffrath
!!!EEV: 1.0
!!!GTL: Abschieds- und Wanderlieder
!!!URL-scan: https://rosdok.uni-rostock.de/mcrviewer/recordIdentifier/rosdok_ppn745177662/iview2/phys_0578.iview2?x=191.0544085554891&y=2294.8579858504236&scale=0.7029437510502773&rotation=0&layout=singlePageLayout
!!!ENC: Anna Maria Matuszewska
!!!EEV: 2024/12/17
*-	*-
